X:114
T:Ashleys Hornpipe. JC.114
R:.Hornpipe
S:John Clare,Poet,Helpston. (1793-1864)
N:My Repeats. CGP.
O:England
A:Northamptonshire
Z:vmp.P. Headford
M:C|
L:1/8
Q:2/4=90
K:G
GABc dBAG|\
gagf e2d2|BdBG cecA|BdBG GFED|!
GABc dBAG|gagf e2d2|BdBG cecA|G2F2 G4:|!
|:defg fafd|gbge fafd|defg afed|BdBG FAFD|!
BdBG cecA|fafd gbge|dgfe dcBA|G2F2″ crot”G4:|

